X:1
T:O pranto do fadista
T:O pranto do fadista
T:FADO - TANGO
T:Eduardo Souto 
T:TEMA: ...e o fadista arrependido chora a morte de guitarra 
T:Ao velho amigo Carlos Martinho
T: Public Domain - https://imslp.org/wiki/O_pranto_do_fadista_(Souto,_Eduardo)
T: Public Domain - https://imslp.org/wiki/O_pranto_do_fadista_(Souto,_Eduardo)
C:Eduardo Souto
Z:TEMA: ...e o fadista arrependido chora a morte de guitarra
Z:Public Domain - https://imslp.org/wiki/O_pranto_do_fadista_(Souto,_Eduardo)
%%score 1 { 2 | ( 3 4 ) }
L:1/8
Q:1/4=100
M:2/4
K:G
V:1 treble-8 nm="Classical Guitar"
V:2 treble nm="Piano"
V:3 bass 
V:4 bass 
V:1
 z4 | z4 | z4 | z4 | z4 | z4 | z4 | z4 | z4 | z4 | z4 | z4 | z4 | z4 | z4 |1,2 z4 :|3 z4!fine! |: %17
[K:E] z4 | z4 | z4 | z4 | z4 | z4 | z4 | z4 :: z/ [egb]/{/d'}[egc']/[egb]/ [ege']/ z3/2 | %26
 z/ [dab]/{/d'}[dac']/[dab]/ [daf']/[dab]/{/d'}[dac']/[dab]/ | %27
 z/ [dab]/{/d'}[dac']/[dab]/ [daf']/ z3/2 | %28
 z/ [egb]/{/d'}[egc']/[egb]/ [egbe']/[egb]/{/d'}[egc']/[egb]/ :: %29
 z/ [egb]/{/d'}[egc']/[egb]/ [egbe']/ z3/2 | z/ [dab]/{/d'}[dac']/[dab]/ [daf']/ z3/2 | %31
 z/ [dab]/{/d'}[dac']/[dab]/ [daf']/ z3/2 | %32
 z/ [egb]/{/d'}[egc']/[egb]/ [egbe']/[egb]/{/d'}[egc']/[egb]/ :| %33
 z/ [egb]/{/d'}[egc']/[egb]/ [ege']/ z3/2 | z/ [dab]/{/d'}[dac']/[dab]/ [daf']/ z3/2 | %35
 z/ [dab]/{/d'}[dac']/[dab]/ [daf']/ z3/2 | %36
 z/ [egb]/{/d'}[egc']/[egb]/ [egbe']/[egb]/{/d'}[egc']/[egb]/ | %37
 z/ [egb]/{/d'}[egc']/[egb]/ [egbe']/ z3/2 | z/ [dab]/{/d'}[dac']/[dab]/ [daf']/ z3/2 | z4 | %40
"_D.C." z4!D.C.! |] %41
V:2
 z G/A/ B/!f!{/d}c/B/A/ | c2 B2- | B/A/B/c/{/e} d/c/B/A/ | c2 B2- | B/B/g/f/ e/B/A/G/ | %5
 [B,EFB]2 [B,EFB]2- | [B,EFB]/F/A/B/ ^d/f/a/g/ |{fg} f2 e2- | ee/f/{/a} g/f/e/d/ | e>c{/c} f2- | %10
 f A/B/ c/f/e/c/ | e>G{/G} B2 | B E/F/ G/A/B/c/ | B2 aa/g/ | ff/e/ ^de/f/ |1,2 %15
{ef} [Ge]2 [egbe']2 :|3{ef} [Ge]2 [egbe']2 |: %17
[K:E]!8va(! z/ [Bb]/[gg']/[dd']/ [ff']/[ee']/[^A^a]/[Bb]/ | %18
 [^B^b]/[cc']/[gg']/[ff']/ [bb']/[aa']/g/[ff']/ | %19
 [ee']/[dd']/[c'c'']/[=c'=c'']/ [bb']/[_b_b']/[aa']/[gg']/ | %20
 [ff']/[ee']/[e'e'']/[c'c'']/ [c'c'']2 | z/ [Bb]/[gg']/[dd']/ [ff']/[ee']/[^A^a]/[Bb]/ | %22
 [^B^b]/[cc']/[gg']/[ff']/ [bb']/[aa']/g/[ff']/ | [ee']/[dd']/[^^c^^c']/[dd']/ [c'c''][dabd'] | %24
 [egbe']2 [e'g'b'e'']2!8va)! ::"^Destaque bem o canto" e2- e/g_g/ | f4 | g2- g/b(3(a/4b/4a/4) | %28
 f4 :: E2- E/FG/ | A2- (5:4:5(A/G/B/A/G/) | F2- (6:4:6(F/G/B/A/G/F/) | G4 :| G2- G/FE/ | %34
{FG} F2- F/D(3(C/4D/4C/4) | B,2- B,/F(3(C/4D/4C/4) | B,4 | G2- G/FE/ |{FG} F2- F/D(3(C/4D/4C/4) | %39
 B,/A/G/B/{AB} A/F/C/D/ | E2 [egbe']2 |] %41
V:3
 !arpeggio![E,,B,,G,]2 z2 | [^D,,^D,]>[A,B,^DF] [A,B,DF] D,/C,/ | B,,>[A,B,^DF] [A,B,DF] B,,/A,,/ | %3
 G,,>[G,B,E] [G,B,E] B,,/A,,/ | G,,>[G,B,E] [G,B,E]2 | (F,,/A,,/C,/E,/ F,/G,/F,/E,/) | %6
 [B,,F,]>[A,B,^DF] [A,B,DF]B,, | [E,,B,,G,]>[G,B,E] [G,B,E] B,,/A,,/ | G,,>[G,B,E] [G,B,E]G,, | %9
 A,,>[A,CEF] [A,CEF]A,, | C,>[A,CEF] [A,CEF]E,/F,/ | [B,,G,]>[G,B,E] [G,B,E]G, | %12
{/G,} B,,>[B,,E,G,] [B,,E,G,] [B,,,B,,]/[B,,,B,,]/ | %13
 [B,,,B,,]>[B,,D,F,A,] [B,,D,F,A,] [B,,,B,,]/[B,,,B,,]/ | %14
 [B,,,B,,]>[B,,^D,F,A,] [B,,D,F,A,] [B,,,B,,]/[B,,,B,,]/ |1,2 [E,,,E,,]>[G,B,E] [G,B,E]B,, :|3 %16
 [E,,E,]2 [E,,E,]2 |:[K:E] G,4 | ^A,4 | B,>[DFA] [DFA]/B,/C/D/ | x4 | !arpeggio!G,4 | ^A,4 | x4 | %24
 G4 :: [E,,E,]>[G,B,E] [G,B,E][B,,,B,,] | [F,,F,]>[A,B,D] [A,B,D][B,,,B,,] | %27
 [D,,D,]>[A,B,D] [A,B,D][B,,,B,,] | [E,,E,]>[G,B,E] [G,B,E][B,,,B,,] :: %29
 [G,,G,]>[E,G,B,] [E,G,B,][B,,,B,,] | [F,,F,]>[A,B,D] [A,B,D][B,,,B,,] | %31
 [E,,D,]>[A,B,D] [A,B,D][B,,,B,,] | [E,,E,]>[G,B,E] [G,B,E][B,,,B,,] :| %33
 [E,,E,]>[G,B,E] [G,B,E][B,,,B,,] | [D,,D,]>[A,B,D] [A,B,D][B,,,B,,] | %35
 [F,,F,]>[A,B,D] [A,B,D][B,,,B,,] | [E,,E,]>[G,B,E] [G,B,E][B,,,B,,] | %37
 [E,,E,]>[G,B,E] [G,B,E][B,,,B,,] | [D,,D,]>[A,B,D] [A,B,D][B,,,B,,] | %39
 [D,,D,]>[B,,D,A,] [B,,D,A,][B,,,B,,] | [E,,E,][B,,,B,,] [E,,,E,,]2 |] %41
V:4
 x4 | x4 | x4 | x4 | x4 | x4 | x4 | x4 | x4 | x4 | x4 | x4 | x4 | x4 | x4 |1,2 x4 :|3 x4 |: %17
[K:E] [E,,B,,]>[G,B,E] [G,B,E]^^F,/G,/ | F,,>[^A,CF] [A,CF]A,/^A,/ | x4 | E>[^^F,^A,] [G,B,]B,, | %21
 !arpeggio![E,,B,,]>[G,B,E] [G,B,E]^^F,/G,/ | F,,>[^A,CF] [A,CF]A,/^A,/ | B,>[DFA] [DFA]A | %24
 E,,>[B,EG] [B,EG][B,EG] :: x4 | x4 | x4 | x4 :: x4 | x4 | x4 | x4 :| x4 | x4 | x4 | x4 | x4 | x4 | %39
 x4 | x4 |] %41

